X: 1989
T: As I Went Out Upon The Ice
R: polka
M: 2/4
K: Dmajor
eA BA|eA AB/d/|eA BA|G2 Gg/f/|
eA BA|eA BA|GB dB|1 A2 g>f:|2 A2 AB/d/||
|:ea ab|ag g/e/d|Bd ef|ga/g/ fg/f/|
ea ab/g/|ag ed|Bd gB|1 A2 AB/d/:|2 A2 g>f||

